X:0878
T:Miss Dawson's Whim.
M:6/8
L:1/8
Q:3/8=120
I: :: ||
N:bar 6 added (first part printed with only 7 bars)
Z:Jack Campin * www.campin.me.uk * 2009
K:G
B/c/|dBG Gge|dBG Gge|dcB dcB|AB(A/B/) A2
B/c/|dBG Gge|dBG Gge|dcB cBA|GA`G/A/  G3||
     Bdd Add|gag f2d|Bdd Add|gec      d3 |
     Bdd Add|gag f2d|Bdd Add|gfe      d3|]

